X:21097 
T:JACK-OF-ALL-TRADES, The 
B:DMI.0166
Z:Nordberg/Black
R:jig
%Q:1/4=160
M:6/8
L:1/8
K:A
E|ABA Ace|a2A A2B|cde dcB|ABA GFE|
ABA Ace|a2A A2B|cde dcB|cAA A2:|
E|A3 cBA|cee e2e|a3 f2b|gee e2e|
fga ecA|GBE cde|fga c2B|cAA A2:|

%%%

